Numix-Light/16/status/skype-status-connecting-1.svg

<?xml version="1.0" encoding="UTF-8" standalone="no"?>
<!-- Created with Inkscape (http://www.inkscape.org/) -->

<svg
   xmlns:dc="http://purl.org/dc/elements/1.1/"
   xmlns:cc="http://creativecommons.org/ns#"
   xmlns:rdf="http://www.w3.org/1999/02/22-rdf-syntax-ns#"
   xmlns:svg="http://www.w3.org/2000/svg"
   xmlns="http://www.w3.org/2000/svg"
   xmlns:sodipodi="http://sodipodi.sourceforge.net/DTD/sodipodi-0.dtd"
   xmlns:inkscape="http://www.inkscape.org/namespaces/inkscape"
   version="1.1"
   width="16"
   height="16"
   id="svg2"
   xml:space="preserve"
   inkscape:version="0.91 r"
   sodipodi:docname="skype-status-connecting-1.svg"><metadata
     id="metadata37"><rdf:RDF><cc:Work
         rdf:about=""><dc:format>image/svg+xml</dc:format><dc:type
           rdf:resource="http://purl.org/dc/dcmitype/StillImage" /><dc:title></dc:title></cc:Work></rdf:RDF></metadata><sodipodi:namedview
     pagecolor="#ffffff"
     bordercolor="#666666"
     borderopacity="1"
     objecttolerance="10"
     gridtolerance="10"
     guidetolerance="10"
     inkscape:pageopacity="0"
     inkscape:pageshadow="2"
     inkscape:window-width="1920"
     inkscape:window-height="1056"
     id="namedview35"
     showgrid="true"
     inkscape:zoom="22.627417"
     inkscape:cx="-10.066486"
     inkscape:cy="5.9266977"
     inkscape:window-x="0"
     inkscape:window-y="24"
     inkscape:window-maximized="1"
     inkscape:current-layer="svg2"><inkscape:grid
       type="xygrid"
       id="grid4146" /></sodipodi:namedview><defs
     id="defs6"><clipPath
       id="clipPath-408241621"><g
         id="g3616"
         transform="translate(0,-1004.3622)"><path
           id="path3618"
           transform="matrix(15.333333,0,0,11.5,414.99999,878.8622)"
           d="m -24,13 c 0,1.105 -0.672,2 -1.5,2 -0.828,0 -1.5,-0.895 -1.5,-2 0,-1.105 0.672,-2 1.5,-2 0.828,0 1.5,0.895 1.5,2 z"
           inkscape:connector-curvature="0"
           style="fill:#1890d0" /></g></clipPath><clipPath
       id="clipPath-401820784"><g
         id="g3611"
         transform="translate(0,-1004.3622)"><path
           id="path3613"
           transform="matrix(15.333333,0,0,11.5,414.99999,878.8622)"
           d="m -24,13 c 0,1.105 -0.672,2 -1.5,2 -0.828,0 -1.5,-0.895 -1.5,-2 0,-1.105 0.672,-2 1.5,-2 0.828,0 1.5,0.895 1.5,2 z"
           inkscape:connector-curvature="0"
           style="fill:#1890d0" /></g></clipPath><linearGradient
       gradientTransform="matrix(0,-1,1,0,-1.5e-6,47.999998)"
       gradientUnits="userSpaceOnUse"
       x2="47"
       x1="1"
       id="linearGradient3764"><stop
         id="stop3606"
         stop-opacity="1"
         stop-color="#003c80" /><stop
         id="stop3608"
         stop-opacity="1"
         stop-color="#004794"
         offset="1" /></linearGradient></defs><path
     style="opacity:1;fill:#353535;fill-opacity:1;fill-rule:nonzero;stroke:none"
     d="M 4.8725585,0.890625 C 2.7339256,0.890625 1,2.6268465 1,4.7683105 1,5.4841777 1.1937285,6.1546595 1.5314942,6.7302246 1.442931,7.1646261 1.3964844,7.6145511 1.3964844,8.0751957 c 0,3.6930033 2.9908838,6.6855473 6.6787116,6.6855463 0.417691,0 0.825558,-0.03762 1.221923,-0.111084 0.545142,0.293417 1.168089,0.459717 1.830323,0.459717 2.138669,0 3.872558,-1.736007 3.872558,-3.877686 0,-0.618743 -0.145875,-1.203693 -0.403321,-1.7226561 0.100964,-0.4623264 0.155518,-0.9412244 0.155518,-1.4338371 0,-3.6929019 -2.989178,-6.6872563 -6.677001,-6.6872563 -0.3893446,0 -0.7722131,0.033345 -1.1433112,0.097412 C 6.3350961,1.1089155 5.6299509,0.890625 4.8725585,0.890625 Z M 5.6843261,3.8522949 8.4375,5.2280273 7.0600585,7.9794917 6.6875,6.8618164 C 6.4302045,7.1577959 6.263376,7.5277782 6.248291,7.9350584 6.224232,8.5846951 6.5585939,9.1908278 7.1215821,9.5158692 l -0.875,1.5158688 C 5.1249334,10.384154 4.4503577,9.1643975 4.498291,7.8701167 4.5406987,6.7250351 5.1433263,5.6828018 6.0893554,5.0673828 L 5.6843261,3.8522949 Z M 9.75,4.9648438 c 1.121648,0.647584 1.796224,1.8673391 1.748291,3.1616208 -0.04241,1.145081 -0.645037,2.1873154 -1.591064,2.8027344 L 10.312256,12.144287 7.5590823,10.768554 8.936523,8.0170896 9.309082,9.1347656 C 9.566378,8.8387864 9.733206,8.4688031 9.748291,8.061523 9.77235,7.4118862 9.437988,6.8057544 8.875,6.4807129 L 9.75,4.9648438 Z"
     id="path22"
     inkscape:connector-curvature="0" /><g
     id="g48"
     transform="matrix(1.25,0,0,-1.25,-129.20625,292.11625)" /><g
     id="g3650"
     clip-path="url(#clipPath-408241621)"
     transform="matrix(0.42297932,0,0,0.42297932,-11.083711,-2.8054484)"><!-- color: #004794 --><g
       id="g3652" /></g></svg>

<!-- Created with Inkscape (http://www.inkscape.org/) -->
<svg xmlns="http://www.w3.org/2000/svg" viewBox="0 0 16 16">
 <path d="m 4.873 0.891 c -2.139 0 -3.873 1.736 -3.873 3.878 0 0.716 0.194 1.386 0.531 1.962 -0.089 0.434 -0.135 0.884 -0.135 1.345 c 0 3.693 2.991 6.686 6.679 6.686 0.418 0 0.826 -0.038 1.222 -0.111 0.545 0.293 1.168 0.46 1.83 0.46 2.139 0 3.873 -1.736 3.873 -3.878 0 -0.619 -0.146 -1.204 -0.403 -1.723 0.101 -0.462 0.156 -0.941 0.156 -1.434 0 -3.693 -2.989 -6.687 -6.677 -6.687 -0.389 0 -0.772 0.033 -1.143 0.097 c -0.597 -0.376 -1.302 -0.595 -2.059 -0.595 m 0.812 2.962 2.753 1.376 -1.377 2.751 -0.373 -1.118 c -0.257 0.296 -0.424 0.666 -0.439 1.073 -0.024 0.65 0.31 1.256 0.873 1.581 l -0.875 1.516 c -1.122 -0.648 -1.796 -1.867 -1.748 -3.162 0.042 -1.145 0.645 -2.187 1.591 -2.803 l -0.405 -1.215 m 4.066 1.113 c 1.122 0.648 1.796 1.867 1.748 3.162 -0.042 1.145 -0.645 2.187 -1.591 2.803 l 0.405 1.215 -2.753 -1.376 1.377 -2.751 0.373 1.118 c 0.257 -0.296 0.424 -0.666 0.439 -1.073 0.024 -0.65 -0.31 -1.256 -0.873 -1.581 l 0.875 -1.516" style="fill:#353535;opacity:1;fill-opacity:1;stroke:none;fill-rule:nonzero"/>
 <g transform="matrix(0.42297932,0,0,0.42297932,-11.083711,-2.8054484)">
  <!-- color: #004794 -->
 </g>
</svg>
